X: 1536
T: Lady Mary Ramsay
T: beanti.gearna maire ramsei.
R: reel
B: O'Neill's 1850 "Music of Ireland" #1536
O: F.O'Neill
Z: transcribed by John B. Walsh, walsh@math.ubc.ca 8/23/96
Z: Compacted via repeats and multiple endings [JC]
M: C|
L: 1/8
K: G
D2 !segno!\
|: G2(G>B) dBGB | dBeB dBAB | G2(GB) \
[1 d2(Bd) | (3(efg) (dB)AcBA :|\
[2 dBGB | (3(efg) dBA2 |] (ga) | b2(gb) a2(fa) |
|  g2(eg) (fd)B2 | b2gb a2fa | gfef d2(ga) \
|| bagb agfa | gfeg dega | bgaf gfed | (3(efg) dB AcB!segno!A |]
